!!!!SEGMENT: pl-cz--iii-694--003_volckmer-augusti--litaniae-lauretanae-g-salus-infirmorum.krn
!!!cenid: 17xx:1120
!!!COM: Volckmer, Augustin
!!!COM-rismID: pe30020656
!!!CDT: 1755-~1820
!!!CNT:
!!!OPR: Litaniae Lauretanae G
!!!OTL: Salus infirmorum
!!!OMV: 003
!!!PDT:
!!!AGN: Sacred; Mass
!!!SMS-siglum: PL-CZ
!!!SMS-shelfmark: III-694
!!!SMS-shelfwork: 001-003 M
!!!SMS-variant:
!!!SMS-altvar:
!!!NIFC-rismSourceID: 300001384
!!!NIFC-rismChildID: 300001384
!!!NIFC-islandoraID: pl-cz:40495
!!!URL-pdf-islandora: https://repozytorium.nifc.pl/islandora/object/pl-cz%3A40495/datastream/PDF/view
!!!URL-scan: https://polish.musicsources.pl/pl/lokalizacje/galeria/rekopisy/6991/1 @EN{Scan on Polish Music Sources Website} @PL{Skany w portalu Dziedzictwo Muzyki Polskiej w otwartym dostępie}
!!!IIIF:
!!!ONB-nifc: UWAGA: części Litanii: Kyrie, Mater Christi, Salus infirmorum, Regina angelorum, Agnus Dei
!!!AIN: 1 alto 1 bass 2 clars 2 cor 1 organ 1 soprn 1 tenor 1 viola 2 violn
!!!key: C
!!!OMD:
!!!OMD-mod: Largo
!!!filter-modern: sic -sq | shed -e "s/TX(.*):t=P:/tx$1:t=P:/LG" | shed -e "s/:rj/:RJ/L" | shed -k -e "s/([^a-gA-Gn#X-])[<>]/$1/g" | shed -k -e "s/r[a-gA-G]+/r/D" | shed -e "s/(LO:DY.*):t=(.*$)/$1:T=$2/L; s/LO:DY(.*)(:a:)(.*)/LO:dy:$1$2$3/L; s/LO:DY(.*)(:b:)(.*)/LO:dy:$1$2$3/L; s/LO:DY(.*)(:[ab])$/LO:dy:$1$2/L; s/LO:DY(.*)(:rj:)(.*)/LO:dy:$1$2$3/L" | shed -e "s/-//B" | shed -e "s/^(\d+[\/\\]right)/$1yy/I;s/^(\d+[\/\\]left)/$1yy/I" | modori -m | autostem -r | tie -s | humtr -p
**kern	**fba	**kern	**dynam	**kern	**dynam	**kern	**dynam	**kern	**dynam	**kern	**text	**kern	**text	**kern	**text	**kern	**text	**kern	**dynam	**kern	**dynam	**kern	**dynam	**kern	**dynam
*part12	*part12	*part12	*part12	*part11	*part11	*part10	*part10	*part9	*part9	*part8	*part8	*part7	*part7	*part6	*part6	*part5	*part5	*part4	*part4	*part3	*	*part2	*part2	*part1	*part1
*staff13	*	*staff12	*	*staff11	*	*staff10	*	*staff9	*	*staff8	*staff8	*staff7	*staff7	*staff6	*staff6	*staff5	*staff5	*staff4	*	*staff3	*	*staff2	*	*staff1	*
*I"Organo	*	*I"Organo	*	*I"Viola obl:	*	*I"Violino Secundo.	*	*I"Violino Primo	*	*I"Baſso.	*	*I"Tenore.	*	*I"Alto	*	*I"Canto	*	*I"Corno Secundo in G.	*	*I"Corno Primo in G.	*	*I"Clarinetto Secundo. C Clarn:	*	*I"Clarinetto Primo. C Clarn	*
*I'org	*	*I'org	*	*I'vla obl	*	*I'vl 2	*	*I'vl 1	*	*I'B	*	*I'T	*	*I'A	*	*I'S	*	*I'cor 2	*	*I'cor 1	*	*I'cl 2	*	*I'cl 1	*
*Iorgan	*	*Iorgan	*	*Iviola	*	*Ivioln	*	*Ivioln	*	*Ibass	*	*Itenor	*	*Ialto	*	*Isoprn	*	*Icor	*	*Icor	*	*Iclars	*	*Iclars	*
*ICklav	*	*ICklav	*	*ICstr	*	*ICstr	*	*ICstr	*	*ICvox	*	*ICvox	*	*ICvox	*	*ICvox	*	*ICbras	*	*ICbras	*	*ICww	*	*ICww	*
*IGcont	*	*IGcont	*	*	*	*	*	*	*	*IGcoro	*	*IGcoro	*	*IGcoro	*	*IGcoro	*	*	*	*	*	*	*	*	*
*	*	*	*	*mI"Viola obligato	*	*mI"Violino II	*	*mI"Violino I	*	*mI"Basso	*	*mI"Tenore	*	*	*	*mI"Soprano	*	*mI"Corno II in G	*	*mI"Corno I in G	*	*mI"Clarinetto II in C	*	*mI"Clarinetto I in C	*
*clefF4	*	*clefG2	*	*clefC3	*	*clefG2	*	*clefG2	*	*clefF4	*	*clefC4	*	*clefC3	*	*clefC1	*	*clefG2	*	*clefG2	*	*clefG2	*	*clefG2	*
*	*	*	*	*	*	*	*	*	*	*	*	*mclefGv2	*	*mclefG2	*	*mclefG2	*	*	*	*	*	*	*	*	*
*	*	*	*	*	*	*	*	*	*	*	*	*	*	*	*	*	*	*ITrd3c5	*	*ITrd3c5	*	*	*	*	*
*k[]	*	*k[]	*	*k[]	*	*k[]	*	*k[]	*	*k[]	*	*k[]	*	*k[]	*	*k[]	*	*	*	*	*	*k[]	*	*k[]	*
*C:	*	*C:	*	*C:	*	*C:	*	*C:	*	*C:	*	*C:	*	*C:	*	*C:	*	*C:	*	*C:	*	*C:	*	*C:	*
*M3/4	*	*M3/4	*	*M3/4	*	*M3/4	*	*M3/4	*	*M3/4	*	*M3/4	*	*M3/4	*	*M3/4	*	*M3/4	*	*M3/4	*	*M3/4	*	*M3/4	*
=1	=1	=1	=1	=1	=1	=1	=1	=1	=1	=1	=1	=1	=1	=1	=1	=1	=1	=1	=1	=1	=1	=1	=1	=1	=1
*	*	*	*	*	*	*	*	*	*	*	*	*2\right	*	*2\right	*	*2\right	*	*	*	*	*	*	*	*	*
!	!	!	!	!LO:TX:t=P:problem:all\right	!	!LO:TX:t=P:problem:all\right	!	!	!	!	!	!	!	!	!	!	!	!LO:TX:b:t=Salus:mod=	!	!	!	!	!	!	!
!LO:TX:b:i:t=Salus:mod=Tutti	!	!	!	!LO:TX:b:t=Salus:mod=	!	!LO:TX:b:t=Salus:mod=	!	!LO:TX:t=P:problem:all\right	!	!LO:TX:t=P:problem:all\right	!	!LO:TX:t=P:problem:all\right	!	!LO:TX:t=P:problem:all\right or middle	!	!LO:TX:t=P:problem:all\right	!	!LO:TX:a:t=15:mod=	!	!LO:TX:b:t=Salus:mod=	!	!LO:TX:b:t=Salus:mod=	!	!LO:TX:b:t=Salus:mod=	!
!LO:TX:t=P:problem:all\right	!	!LO:TX:a:B:t=Largo.:mod=	!	!LO:TX:a:B:t=Largo:mod=	!	!LO:TX:a:B:t=Largo:mod=	!	!LO:TX:a:B:t=Largo:mod=	!	!LO:TX:a:B:t=Largo:mod=	!	!LO:TX:a:B:t=Largo:mod=	!	!LO:TX:a:B:t=Largo:mod=	!	!LO:TX:a:B:t=Largo:mod=	!	!LO:TX:a:B:t=Largo.:mod=	!	!LO:TX:a:B:t=Largo.:mod=	!	!LO:TX:a:B:t=Largo:mod=	!	!LO:TX:a:B:t=Largo Solo:mod=	!
4C/	.	4cc\	.	4c\	.	4e/	.	4cc\	.	(4C/	Sa-	2c\	Sa-	2e\	Sa-	2cc\	Sa-	0.r	.	0.r	.	0.r	.	0.r	.
4E/	.	4r	.	4r	.	4r	.	4r	.	4E\)	.	.	.	.	.	.	.	.	.	.	.	.	.	.	.
!LO:TX:b:i::t=Tutti:color=red:mod=	!	!	!	!	!	!	!	!	!	!	!	!	!	!	!	!	!	!	!	!	!	!	!	!	!
4C/	.	4r	.	4r	.	4r	.	4r	.	4C/	-lus	4c\	-lus	4e\	-lus	4cc\	-lus	.	.	.	.	.	.	.	.
!	!	!	!	!	!	!	!	!	!	!	!	!	!	!	!	!LO:LB:g=original	!	!	!	!	!	!	!	!	!
=2	=2	=2	=2	=2	=2	=2	=2	=2	=2	=2	=2	=2	=2	=2	=2	=2	=2	=2	=2	=2	=2	=2	=2	=2	=2
*	*	*	*	*	*	*	*	*	*	*	*	*	*ij	*	*	*	*	*	*	*	*	*	*	*	*
!	!	!	!	!LO:TX:a:t=4:mod=	!	!	!	!LO:TX:a:t=3:mod=	!	!	!	!	!	!	!	!	!	!	!	!	!	!	!	!	!
4GG/	5	2.ryy	.	0.r	.	0.r	.	1.r	.	(4G\	Sa-	2d\	Sa-	2g\	Sa-	2dd\	Sa-	.	.	.	.	.	.	.	.
4BB/	.	.	.	.	.	.	.	.	.	4B\)	.	.	.	.	.	.	.	.	.	.	.	.	.	.	.
4GG/	.	.	.	.	.	.	.	.	.	4G\	-lus	4d\	-lus	4g\	-lus	4dd\	-lus	.	.	.	.	.	.	.	.
*	*	*	*	*	*	*	*	*	*	*	*	*	*Xij	*	*	*	*	*	*	*	*	*	*	*	*
=3	=3	=3	=3	=3	=3	=3	=3	=3	=3	=3	=3	=3	=3	=3	=3	=3	=3	=3	=3	=3	=3	=3	=3	=3	=3
4C/	3	2.ryy	.	.	.	.	.	.	.	(4c\	in-	(4c\	in-	(4g\	in-	(4ee\	in-	.	.	.	.	.	.	.	.
4F\	6	.	.	.	.	.	.	.	.	4F\)	.	4d\)	.	4a\)	.	4ff\)	.	.	.	.	.	.	.	.	.
4D\	5	.	.	.	.	.	.	.	.	4D\	-fir-	4A\	-fir-	4f\	-fir-	4dd\	-fir-	.	.	.	.	.	.	.	.
!LO:LB:g=original	!	!	!	!	!	!	!	!	!	!	!	!	!	!	!	!	!	!	!	!	!	!	!	!	!
=4	=4	=4	=4	=4	=4	=4	=4	=4	=4	=4	=4	=4	=4	=4	=4	=4	=4	=4	=4	=4	=4	=4	=4	=4	=4
*	*	*	*	*	*	*	*	*	*	*2\right	*	*	*	*	*	*	*	*	*	*	*	*	*	*	*
8r	4 6	2.ryy	.	.	.	.	.	2.r	.	2G\	-mo-	2.G/	-mo-	(2e\	-mo-	2cc\	-mo-	.	.	.	.	.	.	.	.
8G\L	.	.	.	.	.	.	.	.	.	.	.	.	.	.	.	.	.	.	.	.	.	.	.	.	.
8G\	.	.	.	.	.	.	.	.	.	.	.	.	.	.	.	.	.	.	.	.	.	.	.	.	.
8G\	.	.	.	.	.	.	.	.	.	.	.	.	.	.	.	.	.	.	.	.	.	.	.	.	.
8G\	5 7	.	.	.	.	.	.	.	.	4GG/	.	.	.	4f\)	.	4ddT\	.	.	.	.	.	.	.	.	.
8G\J	.	.	.	.	.	.	.	.	.	.	.	.	.	.	.	.	.	.	.	.	.	.	.	.	.
.	.	.	.	.	.	.	.	.	.	.	.	.	.	.	.	16qqcc/LL	.	.	.	.	.	.	.	.	.
.	.	.	.	.	.	.	.	.	.	.	.	.	.	.	.	16qqdd/JJ	.	.	.	.	.	.	.	.	.
=5	=5	=5	=5	=5	=5	=5	=5	=5	=5	=5	=5	=5	=5	=5	=5	=5	=5	=5	=5	=5	=5	=5	=5	=5	=5
*	*	*	*	*	*	*	*	*^	*	*	*	*	*	*	*	*	*	*	*	*	*	*	*	*	*
*	*	*	*	*	*	*	*	*	*cue	*	*	*	*	*	*	*	*	*	*	*	*	*	*	*	*	*
!	!	!	!	!	!	!	!	!LO:TX:b:t=4:mod=	!LO:MO:mod=2.ryyyy	!	!	!	!	!	!	!	!	!	!	!	!	!	!	!	!	!
4C/	.	2.ryy	.	.	.	.	.	2.rD	4rff	.	4C/	-rum	4G/	-rum	4e\	-rum	4cc\	-rum	0.r	.	0.r	.	0.r	.	4r	.
!	!	!	!	!	!	!	!	!	!	!	!	!	!	!	!	!	!	!	!	!	!	!	!	!	!LO:TX:b:i:t=dol:mod=dolce	!
!	!	!	!	!	!	!	!	!LO:TX:a:i:t=Clarin&colon; Solo:mod=	!LO:MO:null:mod=.	!	!	!	!	!	!	!	!	!	!	!	!	!	!	!	!LO:SIC:v:s=4gg	!
4r	.	.	.	.	.	.	.	.	4g/	.	4r	.	4r	.	4r	.	4r	.	.	.	.	.	.	.	4gg#\	.
!	!	!	!	!	!	!	!	!	!LO:MO:null:mod=.	!	!	!	!	!	!	!	!	!	!	!	!	!	!	!	!LO:SIC:v:s=4gg	!
4r	.	.	.	.	.	.	.	.	4g/	.	4r	.	4r	.	4r	.	4r	.	.	.	.	.	.	.	4gg#\	<
!	!	!	!	!	!	!LO:LB:g=original	!	!	!	!	!	!	!	!	!	!	!	!	!	!	!	!	!	!	!	!
=6	=6	=6	=6	=6	=6	=6	=6	=6	=6	=6	=6	=6	=6	=6	=6	=6	=6	=6	=6	=6	=6	=6	=6	=6	=6	=6
*	*	*	*	*	*	*	*	*	*	*	*	*	*	*	*	*	*	*	*	*	*	*	*	*	*2\right	*
!LO:TX:a:t=7:mod=	!	!	!	!LO:MO:null:mod=!LO&colon;TX&colon;i&colon;a&colon;t=dolce	!	!LO:MO:null:mod=!LO&colon;TX&colon;i&colon;a&colon;t=dolce	!	!	!	!	!	!	!	!	!	!	!	!	!	!	!	!	!	!	!	!
!	!	!	!	!LO:SIC:s=8c'L	!LO:DY:b:t=piano:color=red	!	!LO:DY:a:t=pia	!LO:TX:b:t=5:mod=	!LO:MO:mod=2.ryyyy	!	!LO:TX:a:t=7:mod=	!	!LO:TX:a:t=7:mod=	!	!LO:TX:a:t=7:mod=	!	!LO:TX:a:t=7:mod=	!	!	!	!	!	!	!	!	!
0.r	.	2.ryy	.	8c|/L	p	8e'/L	p	2.rD	2.g/	.	0.r	.	0.r	.	0.r	.	0.r	.	.	.	.	.	.	.	2.gg\	[
!	!	!	!	!LO:TX:a:t=dolce:color=red:mod=	!	!	!	!	!	!	!	!	!	!	!	!	!	!	!	!	!	!	!	!	!	!
!	!	!	!	!LO:SIC:s=8c'	!	!	!	!	!	!	!	!	!	!	!	!	!	!	!	!	!	!	!	!	!	!
.	.	.	.	8c|/	.	8e'/	.	.	.	.	.	.	.	.	.	.	.	.	.	.	.	.	.	.	.	.
!	!	!	!	!LO:SIC:s=8B'	!	!LO:TX:a:i:t=Dolce:mod=	!	!	!	!	!	!	!	!	!	!	!	!	!	!	!	!	!	!	!	!
.	.	.	.	8B|/	.	8d'/	.	.	.	.	.	.	.	.	.	.	.	.	.	.	.	.	.	.	.	.
!	!	!	!	!LO:SIC:s=8B'	!	!	!	!	!	!	!	!	!	!	!	!	!	!	!	!	!	!	!	!	!	!
.	.	.	.	8B|/	.	8d'/	.	.	.	.	.	.	.	.	.	.	.	.	.	.	.	.	.	.	.	.
!	!	!	!	!LO:SIC:s=8d'	!	!	!	!	!	!	!	!	!	!	!	!	!	!	!	!	!	!	!	!	!	!
.	.	.	.	8d|/	.	8f'/	.	.	.	.	.	.	.	.	.	.	.	.	.	.	.	.	.	.	.	.
!	!	!	!	!LO:SIC:s=8d'J	!	!	!	!	!	!	!	!	!	!	!	!	!	!	!	!	!	!	!	!	!	!
.	.	.	.	8d|/J	.	8f'/J	.	.	.	.	.	.	.	.	.	.	.	.	.	.	.	.	.	.	.	.
=7	=7	=7	=7	=7	=7	=7	=7	=7	=7	=7	=7	=7	=7	=7	=7	=7	=7	=7	=7	=7	=7	=7	=7	=7	=7	=7
!	!	!	!	!	!	!	!	!LO:TX:b:t=6:mod=	!LO:MO:mod=2.ryyyy	!	!	!	!	!	!	!	!	!	!	!	!	!	!	!	!	!
.	.	2.ryy	.	4c\	.	4e/	.	2.rD	4g/	.	.	.	.	.	.	.	.	.	.	.	.	.	.	.	4gg\	.
!	!	!	!	!	!	!	!	!	!LO:MO:null:mod=.	!	!	!	!	!	!	!	!	!	!	!	!	!	!	!	!	!
.	.	.	.	4r	.	4r	.	.	(16dd/LL	.	.	.	.	.	.	.	.	.	.	.	.	.	.	.	(16ddd\LL	.
!	!	!	!	!	!	!	!	!	!LO:MO:null:mod=.	!	!	!	!	!	!	!	!	!	!	!	!	!	!	!	!	!
.	.	.	.	.	.	.	.	.	16cc/	.	.	.	.	.	.	.	.	.	.	.	.	.	.	.	16ccc\	.
!	!	!	!	!	!	!	!	!	!LO:MO:null:mod=.	!	!	!	!	!	!	!	!	!	!	!	!	!	!	!	!	!
.	.	.	.	.	.	.	.	.	16b/	.	.	.	.	.	.	.	.	.	.	.	.	.	.	.	16bb\)	.
!	!	!	!	!	!	!	!	!	!LO:MO:null:mod=.	!	!	!	!	!	!	!	!	!	!	!	!	!	!	!	!	!
.	.	.	.	.	.	.	.	.	16cc/JJ)	.	.	.	.	.	.	.	.	.	.	.	.	.	.	.	16ccc\JJ	.
!	!	!	!	!	!	!	!	!	!LO:MO:null:mod=.	!	!	!	!	!	!	!	!	!	!	!	!	!	!	!	!	!
.	.	.	.	4c\	.	4e/	.	.	8ee/L	.	.	.	.	.	.	.	.	.	.	.	.	.	.	.	8eee\L	.
!	!	!	!	!	!	!	!	!	!LO:MO:null:mod=.	!	!	!	!	!	!	!	!	!	!	!	!	!	!	!	!	!
.	.	.	.	.	.	.	.	.	8cc/J	.	.	.	.	.	.	.	.	.	.	.	.	.	.	.	8ccc\J	.
!	!	!	!	!	!	!	!	!	!	!	!	!	!	!	!	!	!	!	!	!	!	!	!	!	!LO:LB:g=original	!
=8	=8	=8	=8	=8	=8	=8	=8	=8	=8	=8	=8	=8	=8	=8	=8	=8	=8	=8	=8	=8	=8	=8	=8	=8	=8	=8
!	!	!	!	!	!	!	!	!LO:TX:b:t=7:mod=	!LO:MO:mod=2.ryyyy	!	!	!	!	!	!	!	!	!	!	!	!	!	!	!	!	!
.	.	2.ryy	.	4c\	.	4f/	.	2.rD	4a/	.	.	.	.	.	.	.	.	.	.	.	.	.	.	.	(4aa\	.
!	!	!	!	!	!	!	!	!	!LO:MO:null:mod=.	!	!	!	!	!	!	!	!	!	!	!	!	!	!	!	!	!
.	.	.	.	4c\	.	4e/	.	.	(8g/L	.	.	.	.	.	.	.	.	.	.	.	.	.	.	.	8gg\)	.
.	.	.	.	.	.	.	.	.	.	.	.	.	.	.	.	.	.	.	.	.	.	.	.	.	16qqaa/	.
!	!	!	!	!	!	!	!	!	!LO:MO:null:mod=.	!	!	!	!	!	!	!	!	!	!	!	!	!	!	!	!	!
.	.	.	.	.	.	.	.	.	8gg\)	.	.	.	.	.	.	.	.	.	.	.	.	.	.	.	8gg\	.
.	.	.	.	.	.	.	.	.	.	.	.	.	.	.	.	.	.	.	.	.	.	.	.	.	16qqff/	.
!	!	!	!	!	!	!	!	!	!LO:MO:null:mod=.	!	!	!	!	!	!	!	!	!	!	!	!	!	!	!	!	!
.	.	.	.	4r	.	4r	.	.	8ee|\	.	.	.	.	.	.	.	.	.	.	.	.	.	.	.	8ee\L	.
.	.	.	.	.	.	.	.	.	.	.	.	.	.	.	.	.	.	.	.	.	.	.	.	.	16qqdd/	.
!	!	!	!	!	!	!	!	!	!LO:MO:null:mod=.	!	!	!	!	!	!	!	!	!	!	!	!	!	!	!	!	!
.	.	.	.	.	.	.	.	.	8cc|\J	.	.	.	.	.	.	.	.	.	.	.	.	.	.	.	8cc\J	.
=9	=9	=9	=9	=9	=9	=9	=9	=9	=9	=9	=9	=9	=9	=9	=9	=9	=9	=9	=9	=9	=9	=9	=9	=9	=9	=9
!	!	!	!	!	!	!	!	!LO:TX:b:t=8:mod=	!LO:MO:mod=2.ryyyy	!	!	!	!	!	!	!	!	!	!	!	!	!	!	!	!	!
.	.	2.ryy	.	2G/	.	4e/	.	2.rD	(4cc/	.	.	.	.	.	.	.	.	.	0.r	.	0.r	.	0.r	.	4cc\	.
!	!	!	!	!	!	!	!	!	!LO:MO:null:mod=.	!	!	!	!	!	!	!	!	!	!	!	!	!	!	!	!	!
.	.	.	.	.	.	4d/	.	.	4b/	.	.	.	.	.	.	.	.	.	.	.	.	.	.	.	4b\	.
!	!	!	!	!	!	!	!	!	!LO:MO:null:mod=.	!	!	!	!	!	!	!	!	!	!	!	!	!	!	!	!	!
.	.	.	.	4A/	.	4e/	.	.	4cc/)	.	.	.	.	.	.	.	.	.	.	.	.	.	.	.	4cc\	.
!	!	!	!	!	!	!	!	!	!LO:LB:g=original	!	!	!	!	!	!	!	!	!	!	!	!	!	!	!	!	!
=10	=10	=10	=10	=10	=10	=10	=10	=10	=10	=10	=10	=10	=10	=10	=10	=10	=10	=10	=10	=10	=10	=10	=10	=10	=10	=10
.	.	.	.	.	.	.	.	.	.	.	.	.	.	.	.	.	.	.	.	.	.	.	.	.	32qqff/LLL	.
.	.	.	.	.	.	.	.	.	.	.	.	.	.	.	.	.	.	.	.	.	.	.	.	.	32qqee/	.
.	.	.	.	.	.	.	.	.	.	.	.	.	.	.	.	.	.	.	.	.	.	.	.	.	32qqdd/	.
!	!	!	!	!	!	!	!	!LO:TX:b:t=9:mod=	!	!	!	!	!	!	!	!	!	!	!	!	!	!	!	!	!	!
.	.	.	.	.	.	.	.	.	.	.	.	.	.	.	.	.	.	.	.	.	.	.	.	.	32qqcc/JJJ	.
!	!	!	!	!LO:SIC:v:s=4F	!	!	!	!	!LO:MO:mod=2.ryyyy	!	!	!	!	!	!	!	!	!	!	!	!	!	!	!	!	!
1.r	.	2.ryy	.	4G/	.	4f/	.	2.rD	8dd/L	.	1.r	.	1.r	.	1.r	.	1.r	.	.	.	.	.	.	.	8dd\L	.
!	!	!	!	!	!	!	!	!	!LO:MO:null:mod=.	!	!	!	!	!	!	!	!	!	!	!	!	!	!	!	!	!
.	.	.	.	.	.	.	.	.	16ff/L	.	.	.	.	.	.	.	.	.	.	.	.	.	.	.	(16ff\L	.
!	!	!	!	!	!	!	!	!	!LO:MO:null:mod=.	!	!	!	!	!	!	!	!	!	!	!	!	!	!	!	!	!
.	.	.	.	.	.	.	.	.	16dd/JJ	.	.	.	.	.	.	.	.	.	.	.	.	.	.	.	16ee\JJ)	.
!	!	!	!	!LO:SIC:v:s=4G	!	!	!	!	!LO:MO:null:mod=.	!	!	!	!	!	!	!	!	!	!	!	!	!	!	!	!	!
.	.	.	.	4A/	.	4e/	.	.	(16dd/LL	.	.	.	.	.	.	.	.	.	.	.	.	.	.	.	(16dd\LL	.
!	!	!	!	!	!	!	!	!	!LO:MO:null:mod=.	!	!	!	!	!	!	!	!	!	!	!	!	!	!	!	!	!
.	.	.	.	.	.	.	.	.	16cc/)	.	.	.	.	.	.	.	.	.	.	.	.	.	.	.	16cc\)	.
!	!	!	!	!	!	!	!	!	!LO:MO:null:mod=.	!	!	!	!	!	!	!	!	!	!	!	!	!	!	!	!	!
.	.	.	.	.	.	.	.	.	16ee|/	.	.	.	.	.	.	.	.	.	.	.	.	.	.	.	(16ee\	.
!	!	!	!	!	!	!	!	!	!LO:MO:null:mod=.	!	!	!	!	!	!	!	!	!	!	!	!	!	!	!	!	!
.	.	.	.	.	.	.	.	.	16cc|/JJ	.	.	.	.	.	.	.	.	.	.	.	.	.	.	.	16cc\JJ)	.
!	!	!	!	!LO:SIC:v:s=4G	!	!	!	!	!LO:MO:null:mod=.	!	!	!	!	!	!	!	!	!	!	!	!	!	!	!	!	!
.	.	.	.	4A/	.	4d/	.	.	(16cc/LL	.	.	.	.	.	.	.	.	.	.	.	.	.	.	.	(16cc\LL	.
!	!	!	!	!	!	!	!	!	!LO:MO:null:mod=.	!	!	!	!	!	!	!	!	!	!	!	!	!	!	!	!	!
.	.	.	.	.	.	.	.	.	16b/)	.	.	.	.	.	.	.	.	.	.	.	.	.	.	.	16b\)	.
!	!	!	!	!	!	!	!	!	!LO:MO:null:mod=.	!	!	!	!	!	!	!	!	!	!	!	!	!	!	!	!	!
.	.	.	.	.	.	.	.	.	16dd|/	.	.	.	.	.	.	.	.	.	.	.	.	.	.	.	(16dd\	.
!	!	!	!	!	!	!	!	!	!LO:MO:null:mod=.	!	!	!	!	!	!	!	!	!	!	!	!	!	!	!	!	!
.	.	.	.	.	.	.	.	.	16b|/JJ	.	.	.	.	.	.	.	.	.	.	.	.	.	.	.	16b\JJ)	.
=11	=11	=11	=11	=11	=11	=11	=11	=11	=11	=11	=11	=11	=11	=11	=11	=11	=11	=11	=11	=11	=11	=11	=11	=11	=11	=11
!	!	!	!	!	!	!	!	!LO:TX:b:t=10:mod=	!LO:MO:mod=2.ryyyy	!	!	!	!	!	!	!	!	!	!	!	!	!	!	!	!	!
.	.	2.ryy	.	4c\	.	4e/	.	2.rD	8cc|/L	.	.	.	.	.	.	.	.	.	.	.	.	.	.	.	8cc\L	.
!	!	!	!	!	!	!	!	!	!LO:MO:null:mod=.	!	!	!	!	!	!	!	!	!	!	!	!	!	!	!	!	!
.	.	.	.	.	.	.	.	.	8g|/	.	.	.	.	.	.	.	.	.	.	.	.	.	.	.	8g\	.
!	!	!	!	!	!	!	!	!	!LO:MO:null:mod=.	!	!	!	!	!	!	!	!	!	!	!	!	!	!	!	!	!
.	.	.	.	4r	.	4r	.	.	8cc|/	.	.	.	.	.	.	.	.	.	.	.	.	.	.	.	8cc\	.
!	!	!	!	!	!	!	!	!	!LO:MO:null:mod=.	!	!	!	!	!	!	!	!	!	!	!	!	!	!	!	!	!
.	.	.	.	.	.	.	.	.	8ee|/	.	.	.	.	.	.	.	.	.	.	.	.	.	.	.	8ee\	.
!	!	!	!	!	!	!	!	!	!LO:MO:null:mod=.	!	!	!	!	!	!	!	!	!	!	!	!	!	!	!	!	!
.	.	.	.	4d\	.	4G/ 4f	.	.	8gg|/	.	.	.	.	.	.	.	.	.	.	.	.	.	.	.	8gg\	.
!	!	!	!	!	!	!	!	!	!LO:MO:null:mod=.	!	!	!	!	!	!	!	!	!	!	!	!	!	!	!	!	!
.	.	.	.	.	.	.	.	.	8g|/J	.	.	.	.	.	.	.	.	.	.	.	.	.	.	.	8b\J	.
=12	=12	=12	=12	=12	=12	=12	=12	=12	=12	=12	=12	=12	=12	=12	=12	=12	=12	=12	=12	=12	=12	=12	=12	=12	=12	=12
*	*	*	*	*2\right	*	*	*	*	*	*	*	*	*	*	*	*	*	*	*	*	*	*	*	*	*	*
!LO:TX:b:t=Tutti:color=red:mod=	!	!	!	!	!	!	!	!LO:TX:b:t=11:mod=	!	!	!	!	!	!	!	!	!	!	!	!	!	!	!	!	!	!
!LO:TX:t=P:problem:T czarnym tuszem reszta czerwonym	!	!	!	!	!	!	!	!LO:MO:mod=2.ryyyy	!	!	!	!	!	!	!	!	!	!	!	!	!	!	!	!	!	!
2.r	.	2.ryy	.	2d\	.	2G/ 2f	.	2.rD	2b/	.	2.r	.	2.r	.	2.r	.	2.r	.	.	.	.	.	.	.	(2b\	.
.	.	.	.	4c\	.	4e/	.	.	4cc/	.	.	.	.	.	.	.	.	.	.	.	.	.	.	.	4cc\)	.
*	*	*	*	*	*	*	*	*	*Xcue	*	*	*	*	*	*	*	*	*	*	*	*	*	*	*	*	*
*	*	*	*	*	*	*	*	*v	*v	*	*	*	*	*	*	*	*	*	*	*	*	*	*	*	*	*
!	!	!	!	!	!	!	!	!	!	!	!	!	!	!	!LO:LB:g=original	!	!	!	!	!	!	!	!	!	!
=13	=13	=13	=13	=13	=13	=13	=13	=13	=13	=13	=13	=13	=13	=13	=13	=13	=13	=13	=13	=13	=13	=13	=13	=13	=13
!	!	!	!	!	!LO:DY:b:t=fort:color=red	!	!LO:DY:a:t=forto	!	!LO:DY:b:t=forto	!	!	!	!	!	!	!	!	!	!	!	!	!	!LO:MO:null:mod=f	!	!LO:DY:a
4C/	5 3	2.ryy	.	4c\	f	4e/	f	4cc\	f	(4C/	Sa-	2c\	Sa-	2e\	Sa-	2cc\	Sa-	1.r	.	1.r	.	2e/	.	2cc\	f
4E/	.	.	.	4e\	.	8r	.	8r	.	4E/)	.	.	.	.	.	.	.	.	.	.	.	.	.	.	.
!	!	!	!	!	!	!LO:SIC:s=(8e'L	!	!	!	!	!	!	!	!	!	!	!	!	!	!	!	!	!	!	!
.	.	.	.	.	.	8e'/L	.	(8cc'\L	.	.	.	.	.	.	.	.	.	.	.	.	.	.	.	.	.
!	!	!	!	!	!	!	!	!	!	!	!	!	!	!	!	!	!	!	!	!	!	!	!LO:DY:a:t=for	!	!
!	!	!	!	!	!	!	!	!	!	!	!	!	!	!	!	!	!	!	!	!	!	!	!LO:MO:null:mod=.	!	!
4C/	.	.	.	4c\	.	8e'/	.	8cc'\	.	4C/	-lus	4c\	-lus	4e\	-lus	4cc\	-lus	.	.	.	.	4e/	f	4cc\	.
!	!	!	!	!	!	!LO:SIC:s=8e'J)	!	!	!	!	!	!	!	!	!	!	!	!	!	!	!	!	!	!	!
.	.	.	.	.	.	8e'/J	.	8cc'\J)	.	.	.	.	.	.	.	.	.	.	.	.	.	.	.	.	.
=14	=14	=14	=14	=14	=14	=14	=14	=14	=14	=14	=14	=14	=14	=14	=14	=14	=14	=14	=14	=14	=14	=14	=14	=14	=14
*	*	*	*	*	*	*	*	*	*	*	*ij	*	*ij	*	*	*	*	*	*	*	*	*	*	*	*
4GG/	3	2.ryy	.	4G/	.	4b\	.	4dd\	.	(4GG/	Sa-	2d\	Sa-	2g\	Sa-	2dd\	Sa-	.	.	.	.	2g/	.	2dd\	.
4BB/	.	.	.	4B/	.	8r	.	8r	.	4BB/)	.	.	.	.	.	.	.	.	.	.	.	.	.	.	.
!	!	!	!	!	!	!	!	!LO:SIC:s=(8dd'L	!	!	!	!	!	!	!	!	!	!	!	!	!	!	!	!	!
.	.	.	.	.	.	(8b'\L	.	(8dd|\L	.	.	.	.	.	.	.	.	.	.	.	.	.	.	.	.	.
4GG/	.	.	.	4G/	.	8b'\	.	8dd'\	.	4GG/	-lus	4d\	-lus	4g\	-lus	4dd\	-lus	.	.	.	.	4g/	.	4dd\	.
!	!	!	!	!	!	!	!	!LO:SIC:s=8dd'J)	!	!	!	!	!	!	!	!	!	!	!	!	!	!	!	!	!
.	.	.	.	.	.	8b'\J)	.	8dd|\J)	.	.	.	.	.	.	.	.	.	.	.	.	.	.	.	.	.
*	*	*	*	*	*	*	*	*	*	*	*Xij	*	*Xij	*	*	*	*	*	*	*	*	*	*	*	*
!	!	!	!	!LO:LB:g=original	!	!	!	!	!	!	!	!	!	!	!	!	!	!	!	!	!	!	!	!	!
=15	=15	=15	=15	=15	=15	=15	=15	=15	=15	=15	=15	=15	=15	=15	=15	=15	=15	=15	=15	=15	=15	=15	=15	=15	=15
4C/	.	2.ryy	.	4c\	.	8r	.	8r	.	(4C/	in-	(4c\	in-	(4g\	in-	(4ee\	in-	2.r	.	2.r	.	4cc\	.	(4ee\	.
!	!	!	!	!	!	!	!	!LO:SIC:s=8ee	!	!	!	!	!	!	!	!	!	!	!	!	!	!	!	!	!
.	.	.	.	.	.	8cc\	.	8ee|\	.	.	.	.	.	.	.	.	.	.	.	.	.	.	.	.	.
4F\	.	.	.	4F/	.	8r	.	8r	.	4F\)	.	4d\)	.	4a\)	.	4ff\)	.	.	.	.	.	4a/	.	4ff\)	.
!	!	!	!	!	!	!	!	!LO:SIC:s=8ff	!	!	!	!	!	!	!	!	!	!	!	!	!	!	!	!	!
.	.	.	.	.	.	8a/	.	8ff|\	.	.	.	.	.	.	.	.	.	.	.	.	.	.	.	.	.
4D\	.	.	.	4D/	.	8r	.	8r	.	4D\	-fir-	4A\	-fir-	4f\	-fir-	4dd\	-fir-	.	.	.	.	4f/	.	4ee\	.
!	!	!	!	!	!	!	!	!LO:SIC:s=8dd	!	!	!	!	!	!	!	!	!	!	!	!	!	!	!	!	!
.	.	.	.	.	.	8f/	.	8dd|\	.	.	.	.	.	.	.	.	.	.	.	.	.	.	.	.	.
=16	=16	=16	=16	=16	=16	=16	=16	=16	=16	=16	=16	=16	=16	=16	=16	=16	=16	=16	=16	=16	=16	=16	=16	=16	=16
*	*	*	*	*	*	*	*	*	*	*	*	*	*	*	*	*	*	*2\right	*	*2\right	*	*	*	*	*
!	!	!	!	!	!	!	!	!	!	!	!	!	!	!	!	!	!	!	!	!	!LO:MO:null:mod=!LO&colon;DY&colon;ed=brack	!	!	!	!
!	!	!	!	!	!	!	!	!	!	!	!	!	!	!	!	!	!	!	!	!	!	!	!	!	!
!	!	!	!	!	!	!	!	!	!	!LO:SIC:s=(2G	!	!	!	!	!	!LO:SIC:s=(2cc	!	!	!LO:DY:a:t=for	!	!LO:MO:null:mod=f	!	!	!	!
8r	6 4	2.ryy	.	8r	.	8r	.	8r	.	2G\	-mo-	2.G/	-mo-	(2e\	-mo-	2cc\	-mo-	2g\	f	2g\	.	2e/	.	2cc\	.
8G\L	.	.	.	8G|/	.	8e'/L	.	8cc'\L	.	.	.	.	.	.	.	.	.	.	.	.	.	.	.	.	.
*	*	*	*	*tremolo	*	*	*	*	*	*	*	*	*	*	*	*	*	*	*	*	*	*	*	*	*
!	!	!	!	!LO:TX:t=P:problem:4x |	!	!	!	!	!	!	!	!	!	!	!	!	!	!	!	!	!	!	!	!	!
8G\	.	.	.	8G|/L	.	8e'/	.	8cc'\	.	.	.	.	.	.	.	.	.	.	.	.	.	.	.	.	.
8G\	.	.	.	8G|/	.	8e'/	.	8cc'\J	.	.	.	.	.	.	.	.	.	.	.	.	.	.	.	.	.
!	!	!	!	!	!	!	!	!	!	!LO:SIC:s=4GG)	!	!	!	!	!	!LO:SIC:s=4ddT)	!	!	!	!	!	!	!	!	!
8GG/	7 5	.	.	8G|/	.	8f'/	.	(16ee\LL	.	4GG/	.	.	.	4f\)	.	4ddT\	.	4g\	.	4g\	.	4f/	.	4dd\	.
.	.	.	.	.	.	.	.	16dd\	.	.	.	.	.	.	.	.	.	.	.	.	.	.	.	.	.
8GG/J	.	.	.	8G|/J	.	8f'/J	.	16cc\	.	.	.	.	.	.	.	.	.	.	.	.	.	.	.	.	.
.	.	.	.	.	.	.	.	16dd\JJ)	.	.	.	.	.	.	.	.	.	.	.	.	.	.	.	.	.
!	!	!	!	!	!	!LO:LB:g=original	!	!	!	!	!	!	!	!	!	!	!	!	!	!	!	!	!	!	!
=17	=17	=17	=17	=17	=17	=17	=17	=17	=17	=17	=17	=17	=17	=17	=17	=17	=17	=17	=17	=17	=17	=17	=17	=17	=17
!	!	!	!	!	!	!	!	!LO:TX:t=P:problem:mixed beam	!	!	!	!	!	!	!	!	!	!	!	!	!	!	!	!	!
!	!	!	!	!	!	!	!	!LO:SIC:s=16cc|LL	!	!	!	!	!	!	!	!	!	!	!	!	!	!	!	!	!
4C/	.	2.ryy	.	4G/	.	16e|/LL	.	16cc\LL	.	4C/	-rum	4G/	-rum	4e\	-rum	4cc\	-rum	4g\	.	4g\	.	4e/	.	4cc\	.
.	.	.	.	.	.	16c|/	.	16c|/	.	.	.	.	.	.	.	.	.	.	.	.	.	.	.	.	.
.	.	.	.	.	.	16e|/	.	16e|/	.	.	.	.	.	.	.	.	.	.	.	.	.	.	.	.	.
.	.	.	.	.	.	16g|/JJ	.	16g|/JJ	.	.	.	.	.	.	.	.	.	.	.	.	.	.	.	.	.
4r	.	.	.	4r	.	16cc|\LL	.	16cc|\LL	.	4r	.	4r	.	4r	.	4r	.	4r	.	4r	.	4r	.	4r	.
.	.	.	.	.	.	16g|\	.	16g|\	.	.	.	.	.	.	.	.	.	.	.	.	.	.	.	.	.
.	.	.	.	.	.	16ee|\	.	16ee|\	.	.	.	.	.	.	.	.	.	.	.	.	.	.	.	.	.
.	.	.	.	.	.	16cc|\JJ	.	16cc|\JJ	.	.	.	.	.	.	.	.	.	.	.	.	.	.	.	.	.
!	!	!	!	!	!	!	!	!	!	!	!	!	!	!	!	!	!	!	!	!	!	!	!	!LO:LB:g=original	!
4c\	3	.	.	4c\	.	8g|/L	.	8gg|\L	.	4c\	Re-	4c\	Re-	4g\	Re-	4ee\	Re-	4r	.	4r	.	4cc\	.	4ee\	.
.	.	.	.	.	.	8e|/J	.	8ee|\J	.	.	.	.	.	.	.	.	.	.	.	.	.	.	.	.	.
=18	=18	=18	=18	=18	=18	=18	=18	=18	=18	=18	=18	=18	=18	=18	=18	=18	=18	=18	=18	=18	=18	=18	=18	=18	=18
*	*	*	*	*^	*	*	*	*	*	*	*	*	*	*	*	*	*	*	*	*	*	*	*	*	*
4G\	3	2.ryy	.	4d/	4B\	.	16r	.	16r	.	4.G\	-fu-	4.B\	-fu-	4.g\	-fu-	4.dd\	-fu-	4g\	.	4b\	.	4.b\	.	4.dd\	.
.	.	.	.	.	.	.	(16g/LL	.	(16gg\LL	.	.	.	.	.	.	.	.	.	.	.	.	.	.	.	.	.
.	.	.	.	.	.	.	16f#X/	.	16ff#X\	.	.	.	.	.	.	.	.	.	.	.	.	.	.	.	.	.
.	.	.	.	.	.	.	16g/JJ)	.	16gg\JJ)	.	.	.	.	.	.	.	.	.	.	.	.	.	.	.	.	.
!	!	!	!	!	!	!	!	!	!LO:LB:g=original	!	!	!	!	!	!	!	!	!	!	!	!	!	!	!	!	!
4G\	.	.	.	4d/	4B\	.	16r	.	16r	.	.	.	.	.	.	.	.	.	8g\L	.	8b\L	.	.	.	.	.
!	!	!	!	!	!	!	!	!	!LO:SIC:s=16ddLL(	!	!	!	!	!	!	!	!	!	!	!	!	!	!	!	!	!
.	.	.	.	.	.	.	(16d/LL	.	16dd'\LL	.	.	.	.	.	.	.	.	.	.	.	.	.	.	.	.	.
!	!	!	!	!	!	!	!	!	!LO:SIC:s=16cc#	!	!LO:LB:g=original	!	!	!	!	!	!	!	!	!	!	!	!	!	!	!
.	.	.	.	.	.	.	16c#X/	.	16cc#X'\	.	8G\	-gi-	8B\	-gi-	8g\	-gi-	8dd\	-gi-	8g\J	.	8b\J	.	8b\	.	8dd\	.
!	!	!	!	!	!	!	!	!	!LO:SIC:s=16ddJJ)	!	!	!	!	!	!	!	!	!	!	!	!	!	!	!	!	!
.	.	.	.	.	.	.	16d/JJ)	.	16dd'\JJ	.	.	.	.	.	.	.	.	.	.	.	.	.	.	.	.	.
!	!	!	!	!	!	!	!	!	!LO:SIC:s=(16ccLL	!	!	!	!	!	!	!	!	!	!	!	!	!	!	!	!	!
4G\	.	.	.	4d/	4B\	.	(16cn/LL	.	16ccn\LL	.	4G\	-um	4B\	-um	4g\	-um	4dd\	-um	4g\	.	4b\	.	4b\	.	4dd\	.
.	.	.	.	.	.	.	16B/	.	16b\	.	.	.	.	.	.	.	.	.	.	.	.	.	.	.	.	.
!	!	!	!	!	!	!	!	!	!LO:SIC:s=16a)	!	!	!	!	!	!	!	!	!	!	!	!	!	!	!	!	!
.	.	.	.	.	.	.	16A/)	.	16a\	.	.	.	.	.	.	.	.	.	.	.	.	.	.	.	.	.
.	.	.	.	.	.	.	16G/JJ	.	16g\JJ	.	.	.	.	.	.	.	.	.	.	.	.	.	.	.	.	.
*	*	*	*	*v	*v	*	*	*	*	*	*	*	*	*	*	*	*	*	*	*	*	*	*	*	*	*
!	!	!	!	!	!	!	!	!	!	!	!	!	!LO:LB:g=original	!	!	!	!LO:LB:g=original	!	!	!	!	!	!	!	!
=19	=19	=19	=19	=19	=19	=19	=19	=19	=19	=19	=19	=19	=19	=19	=19	=19	=19	=19	=19	=19	=19	=19	=19	=19	=19
4D\	7 #	2.ryy	.	8f#X\	.	8d/	.	16r	.	2D\	pec-	2A\	pec-	2f#X\	pec-	2cc\	pec-	2d/	.	2a\	.	4a/	.	2cc\	.
!	!	!	!	!	!	!	!	!LO:TX:t=P:problem:mixed beam	!	!	!	!	!	!	!	!	!	!	!	!	!	!	!	!	!
.	.	.	.	.	.	.	.	(16cc\LL	.	.	.	.	.	.	.	.	.	.	.	.	.	.	.	.	.
.	.	.	.	4f#\	.	4a/	.	16c/	.	.	.	.	.	.	.	.	.	.	.	.	.	.	.	.	.
.	.	.	.	.	.	.	.	16cc\JJ)	.	.	.	.	.	.	.	.	.	.	.	.	.	.	.	.	.
4D\	.	.	.	.	.	.	.	(16aa\LL	.	.	.	.	.	.	.	.	.	.	.	.	.	2f#X/	.	.	.
.	.	.	.	.	.	.	.	16cc\)	.	.	.	.	.	.	.	.	.	.	.	.	.	.	.	.	.
.	.	.	.	4f#\	.	4a/	.	(16aa\	.	.	.	.	.	.	.	.	.	.	.	.	.	.	.	.	.
.	.	.	.	.	.	.	.	16cc\JJ)	.	.	.	.	.	.	.	.	.	.	.	.	.	.	.	.	.
!	!	!	!	!	!	!	!	!LO:TX:t=P:problem:mixed beam	!	!	!	!	!	!	!	!	!	!	!	!	!	!	!	!	!
4D\	.	.	.	.	.	.	.	(16d/LL	.	4D\	-ca-	4A\	-ca-	4f#\	-ca-	4cc\	-ca-	4d/	.	4a\	.	.	.	4cc\	.
.	.	.	.	.	.	.	.	16cc\	.	.	.	.	.	.	.	.	.	.	.	.	.	.	.	.	.
.	.	.	.	8f#\	.	8a/	.	16aa\	.	.	.	.	.	.	.	.	.	.	.	.	.	.	.	.	.
.	.	.	.	.	.	.	.	16cc\JJ)	.	.	.	.	.	.	.	.	.	.	.	.	.	.	.	.	.
!LO:LB:g=original	!	!	!	!	!	!	!	!	!	!	!	!	!	!	!	!	!	!	!	!LO:LB:g=original	!	!	!	!	!
=20	=20	=20	=20	=20	=20	=20	=20	=20	=20	=20	=20	=20	=20	=20	=20	=20	=20	=20	=20	=20	=20	=20	=20	=20	=20
4GG/	3	2.ryy	.	8g\	.	8b\	.	16r	.	(4G\	-to-	2d\	-to-	(4g\	-to-	(4b\	-to-	4B/	.	4g\	.	4g/	.	4b\	.
.	.	.	.	.	.	.	.	(16gg'\LL	.	.	.	.	.	.	.	.	.	.	.	.	.	.	.	.	.
.	.	.	.	8r	.	8r	.	16gg'\	.	.	.	.	.	.	.	.	.	.	.	.	.	.	.	.	.
.	.	.	.	.	.	.	.	16gg'\JJ)	.	.	.	.	.	.	.	.	.	.	.	.	.	.	.	.	.
4AA/	3	.	.	8a\	.	8cc\	.	16r	.	4A\)	.	.	.	4f#X\)	.	4cc\)	.	4d/	.	4a\	.	4f#X/	.	4cc\	.
.	.	.	.	.	.	.	.	(16gg'\LL	.	.	.	.	.	.	.	.	.	.	.	.	.	.	.	.	.
.	.	.	.	8r	.	8r	.	16gg'\	.	.	.	.	.	.	.	.	.	.	.	.	.	.	.	.	.
.	.	.	.	.	.	.	.	16gg'\JJ)	.	.	.	.	.	.	.	.	.	.	.	.	.	.	.	.	.
4BB/	3	.	.	8b\	.	8dd\	.	16r	.	4B\	-rum	4d\	-rum	4g\	-rum	4dd\	-rum	4g\	.	4b\	.	4g/	.	4dd\	.
.	.	.	.	.	.	.	.	(16gg'\LL	.	.	.	.	.	.	.	.	.	.	.	.	.	.	.	.	.
.	.	.	.	8r	.	8r	.	16gg'\	.	.	.	.	.	.	.	.	.	.	.	.	.	.	.	.	.
.	.	.	.	.	.	.	.	16gg'\JJ)	.	.	.	.	.	.	.	.	.	.	.	.	.	.	.	.	.
=21	=21	=21	=21	=21	=21	=21	=21	=21	=21	=21	=21	=21	=21	=21	=21	=21	=21	=21	=21	=21	=21	=21	=21	=21	=21
*	*	*	*	*	*	*2\right	*	*	*	*	*	*	*	*	*	*	*	*	*	*	*	*	*	*	*
.	.	.	.	.	.	.	.	(16qqdd#X/	.	.	.	.	.	.	.	.	.	.	.	.	.	.	.	.	.
!	!	!	!	!	!	!	!	!	!	!	!	!LO:SIC:s=4c	!	!	!	!	!	!	!	!	!	!	!	!	!
4C/	.	2.ryy	.	2e\	.	2cc\	.	4ee\)	.	4c\	o-	(4c\	o-	4g\	o-	(4ee\	o-	4a\	.	4a\	.	4cc\	.	4ee\	.
!	!	!	!	!	!	!	!	!	!	!	!LO:MO:null:mod=.	!	!	!	!LO:MO:null:mod=.	!	!LO:MO:mod=.	!	!	!	!	!	!	!	!
4AA/	.	.	.	.	.	.	.	(16ddn\LL	.	4A\	-ra	4A\)	.	4e\	-ra	4cc\)	-ra	4r	.	4r	.	4a\	.	4ccc\	.
.	.	.	.	.	.	.	.	16cc\	.	.	.	.	.	.	.	.	.	.	.	.	.	.	.	.	.
.	.	.	.	.	.	.	.	16b\	.	.	.	.	.	.	.	.	.	.	.	.	.	.	.	.	.
.	.	.	.	.	.	.	.	16a\JJ)	.	.	.	.	.	.	.	.	.	.	.	.	.	.	.	.	.
!	!	!	!	!	!	!	!	!	!	!	!LO:MO:mod=-ra	!	!	!	!LO:MO:mod=-ra	!	!LO:MO:mod=-ra	!LO:LB:g=original	!	!	!	!	!	!	!
4C/	.	.	.	4e\	.	4cc\	.	(16g#X/LL	.	4C/	pro	4c\	-ra	4e\	pro-	4a\	pro-	4a\	.	4a\	.	4cc\	.	4aa\	.
.	.	.	.	.	.	.	.	16a/)	.	.	.	.	.	.	.	.	.	.	.	.	.	.	.	.	.
.	.	.	.	.	.	.	.	16b|/	.	.	.	.	.	.	.	.	.	.	.	.	.	.	.	.	.
.	.	.	.	.	.	.	.	16a|/JJ	.	.	.	.	.	.	.	.	.	.	.	.	.	.	.	.	.
=22	=22	=22	=22	=22	=22	=22	=22	=22	=22	=22	=22	=22	=22	=22	=22	=22	=22	=22	=22	=22	=22	=22	=22	=22	=22
*	*	*	*	*	*	*	*	*	*	*	*	*	*	*	*	*	*	*	*	*	*	*2\right	*	*	*
!	!	!	!	!LO:TX:t=P:problem:mixed beam	!	!LO:TX:t=P:problem:mixed beam	!	!	!	!	!	!	!	!	!LO:MO:null:mod=pro	!	!LO:MO:null:mod=pro	!	!	!	!	!	!	!	!
4D\	6 4	2.ryy	.	8d\L	.	(16d/LL	.	(16dd\LL	.	2.D\	no-	2.B\	pro	2.d\	.	2.g\	.	2.g\	.	2.b\	.	2.gg\	.	2.bb\	.
.	.	.	.	.	.	16b\	.	16gg\	.	.	.	.	.	.	.	.	.	.	.	.	.	.	.	.	.
.	.	.	.	8D|/J	.	16dd\	.	16bb\	.	.	.	.	.	.	.	.	.	.	.	.	.	.	.	.	.
.	.	.	.	.	.	16b\JJ)	.	16gg\JJ)	.	.	.	.	.	.	.	.	.	.	.	.	.	.	.	.	.
!	!	!	!	!LO:TX:t=P:problem:4x |	!	!	!	!	!	!	!	!	!	!	!	!	!	!	!	!	!	!	!	!	!
4r	.	.	.	8D|/L	.	(16dd\LL	.	(16bb\LL	.	.	.	.	.	.	.	.	.	.	.	.	.	.	.	.	.
.	.	.	.	.	.	16b\)	.	16gg\)	.	.	.	.	.	.	.	.	.	.	.	.	.	.	.	.	.
.	.	.	.	8D|/	.	(16dd\	.	(16bb\	.	.	.	.	.	.	.	.	.	.	.	.	.	.	.	.	.
.	.	.	.	.	.	16b\JJ)	.	16gg\JJ)	.	.	.	.	.	.	.	.	.	.	.	.	.	.	.	.	.
!	!	!	!	!	!	!LO:TX:t=P:problem:mixed beam	!	!	!	!	!	!	!	!	!	!	!	!	!	!	!	!	!	!	!
4D\	.	.	.	8D|/	.	(16d/LL	.	(16dd\LL	.	.	.	.	.	.	.	.	.	.	.	.	.	.	.	.	.
.	.	.	.	.	.	16b\	.	16gg\	.	.	.	.	.	.	.	.	.	.	.	.	.	.	.	.	.
.	.	.	.	8D|/J	.	16dd\	.	16bb\	.	.	.	.	.	.	.	.	.	.	.	.	.	.	.	.	.
.	.	.	.	.	.	16b\JJ)	.	16gg\JJ)	.	.	.	.	.	.	.	.	.	.	.	.	.	.	.	.	.
!	!	!	!	!	!	!LO:LB:g=original	!	!	!	!	!	!	!	!	!	!	!	!	!	!	!	!LO:LB:g=original	!	!	!
=23	=23	=23	=23	=23	=23	=23	=23	=23	=23	=23	=23	=23	=23	=23	=23	=23	=23	=23	=23	=23	=23	=23	=23	=23	=23
!	!	!	!	!	!	!LO:TX:t=P:problem:mixed beam	!	!	!	!	!	!	!	!	!LO:MO:null:mod=[no]-	!	!LO:MO:null:mod=[no]-	!	!	!	!	!	!	!	!
4DD/	5 #	2.ryy	.	8r	.	(16d/LL	.	(16dd\LL	.	2.D\	.	2.A\	no-	2.c\	.	2.aT\	.	2.d/	.	2.a\	.	2.ff#X\	.	2.ccc\	.
.	.	.	.	.	.	16a\	.	16ff#X\	.	.	.	.	.	.	.	.	.	.	.	.	.	.	.	.	.
.	.	.	.	8D|/	.	16cc\	.	16aa\	.	.	.	.	.	.	.	.	.	.	.	.	.	.	.	.	.
.	.	.	.	.	.	16a\JJ)	.	16ff#\JJ)	.	.	.	.	.	.	.	.	.	.	.	.	.	.	.	.	.
!	!	!	!	!LO:TX:t=P:problem:4x |	!	!	!	!LO:LB:g=original	!	!	!	!	!	!	!	!	!	!	!	!	!	!	!	!	!
4r	.	.	.	8D|/L	.	(16cc\LL	.	(16aa\LL	.	.	.	.	.	.	.	.	.	.	.	.	.	.	.	.	.
.	.	.	.	.	.	16a\)	.	16ff#\)	.	.	.	.	.	.	.	.	.	.	.	.	.	.	.	.	.
.	.	.	.	8D|/	.	(16cc\	.	(16aa\	.	.	.	.	.	.	.	.	.	.	.	.	.	.	.	.	.
.	.	.	.	.	.	16a\JJ)	.	16ff#\JJ)	.	.	.	.	.	.	.	.	.	.	.	.	.	.	.	.	.
!	!	!	!	!	!	!LO:TX:t=P:problem:mixed beam	!	!	!	!	!	!	!	!	!	!	!	!	!	!	!	!	!	!	!
4DD/	.	.	.	8D|/	.	(16d/LL	.	(16dd\LL	.	.	.	.	.	.	.	.	.	.	.	.	.	.	.	.	.
.	.	.	.	.	.	16a\	.	16ff#\	.	.	.	.	.	.	.	.	.	.	.	.	.	.	.	.	.
.	.	.	.	8D|/J	.	16cc\	.	16aa\	.	.	.	.	.	.	.	.	.	.	.	.	.	.	.	.	.
.	.	.	.	.	.	16a\JJ)	.	16ff#\JJ)	.	.	.	.	.	.	.	.	.	.	.	.	.	.	.	.	.
*	*	*	*	*Xtremolo	*	*	*	*	*	*	*	*	*	*	*	*	*	*	*	*	*	*	*	*	*
!	!	!	!	!	!	!	!	!	!	!	!	!	!	!LO:LB:g=original	!	!	!	!	!	!	!	!	!	!	!
=24	=24	=24	=24	=24	=24	=24	=24	=24	=24	=24	=24	=24	=24	=24	=24	=24	=24	=24	=24	=24	=24	=24	=24	=24	=24
!	!	!	!	!	!	!	!LO:MO:null:mod=!LO&colon;DY&colon;ed=brack	!	!	!	!	!	!	!	!	!	!	!	!	!	!	!	!	!	!
!	!	!	!	!	!	!	!	!	!	!	!	!	!	!	!	!	!	!	!	!	!	!	!	!	!
!	!	!	!	!	!	!	!LO:MO:null:mod=p	!	!	!	!	!	!	!	!	!	!	!	!	!	!	!	!	!	!
4GG/	.	2.ryy	.	4G/	.	(8b/L	.	8gg\L	.	4G\	-bis	4B\	-bis	4d\	-bis	4g\	-bis	4B/	.	4g\	.	4gg\	.	4bb\	.
!	!	!	!	!	!	!	!	!	!LO:DY:b:t=piano	!	!	!	!	!	!	!	!	!	!	!	!	!	!	!	!
.	.	.	.	.	.	8a/	.	(32gg\KL	p	.	.	.	.	.	.	.	.	.	.	.	.	.	.	.	.
.	.	.	.	.	.	.	.	16.ffn\JJ)	.	.	.	.	.	.	.	.	.	.	.	.	.	.	.	.	.
4r	.	.	.	4r	.	8g/)	.	(32ff\KLL	.	4r	.	4r	.	4r	.	4r	.	4r	.	4r	.	4r	.	4r	.
.	.	.	.	.	.	.	.	16.ee\)	.	.	.	.	.	.	.	.	.	.	.	.	.	.	.	.	.
.	.	.	.	.	.	8fn|/	.	(32ee\K	.	.	.	.	.	.	.	.	.	.	.	.	.	.	.	.	.
.	.	.	.	.	.	.	.	16.dd\JJ)	.	.	.	.	.	.	.	.	.	.	.	.	.	.	.	.	.
4r	.	.	.	4r	.	8e|/	.	(32dd\KLL	.	4r	.	4r	.	4r	.	4r	.	4r	.	4r	.	4r	.	4r	.
.	.	.	.	.	.	.	.	16.cc\)	.	.	.	.	.	.	.	.	.	.	.	.	.	.	.	.	.
.	.	.	.	.	.	8d|/J	.	(32cc\K	.	.	.	.	.	.	.	.	.	.	.	.	.	.	.	.	.
.	.	.	.	.	.	.	.	16.b\JJ)	.	.	.	.	.	.	.	.	.	.	.	.	.	.	.	.	.
=25	=25	=25	=25	=25	=25	=25	=25	=25	=25	=25	=25	=25	=25	=25	=25	=25	=25	=25	=25	=25	=25	=25	=25	=25	=25
!	!	!	!	!	!	!	!	!	!LO:DY:b:t=forto	!	!	!	!	!	!	!	!	!	!	!LO:TX:a:t=13:mod=	!	!	!	!	!
!	!	!	!	!	!	!	!	!	!LO:MO:null:mod=.	!	!	!	!	!	!	!	!	!	!	!	!	!	!	!	!
4C/	3	2.ryy	.	8r	.	8r	.	8r	f	(4G\	Con-	2c\	Con-	2e\	Con-	2cc\	Con-	0.r	.	0.r	.	2e/	.	2cc\	.
!	!	!	!	!	!	!	!LO:MO:null:mod=!LO&colon;DY&colon;ed=brack	!	!	!	!	!	!	!	!	!	!	!	!	!	!	!	!	!	!
!	!	!	!	!	!	!	!	!	!	!	!	!	!	!	!	!	!	!	!	!	!	!	!	!	!
!	!	!	!	!	!	!	!LO:MO:null:mod=f	!	!LO:MO:null:mod=f	!	!	!	!	!	!	!	!	!	!	!	!	!	!	!	!
.	.	.	.	8G/L	.	8e/L	.	8cc\L	.	.	.	.	.	.	.	.	.	.	.	.	.	.	.	.	.
4E/	.	.	.	8g\	.	8e/	.	8cc\	.	4E\)	.	.	.	.	.	.	.	.	.	.	.	.	.	.	.
.	.	.	.	8g\J	.	8e/J	.	8cc\J	.	.	.	.	.	.	.	.	.	.	.	.	.	.	.	.	.
4C/	-7	.	.	8r	.	8r	.	8r	.	4C/	-sol-	4e\	-so-	4g\	-so-	4b-X\	-so-	.	.	.	.	4g/	.	4b-X\	.
.	.	.	.	8b-X\	.	8g/	.	8ee\	.	.	.	.	.	.	.	.	.	.	.	.	.	.	.	.	.
!	!	!	!	!LO:LB:g=original	!	!	!	!	!	!	!	!	!	!	!	!	!	!	!	!	!	!	!	!	!
=26	=26	=26	=26	=26	=26	=26	=26	=26	=26	=26	=26	=26	=26	=26	=26	=26	=26	=26	=26	=26	=26	=26	=26	=26	=26
4F\	.	2.ryy	.	8r	.	8r	.	8r	.	(4F\	-la-	(4c\	-la-	(4f\	-la-	(4a\	-la-	.	.	.	.	4f/	.	4a\	.
.	.	.	.	8cc\	.	8a/	.	8ff\	.	.	.	.	.	.	.	.	.	.	.	.	.	.	.	.	.
4E\	.	.	.	8r	.	8r	.	8r	.	4E\)	.	4A\)	.	4e\)	.	4cc#X\)	.	.	.	.	.	4e/	.	4cc#X\	.
.	.	.	.	8a\	.	8e/	.	8cc#X\	.	.	.	.	.	.	.	.	.	.	.	.	.	.	.	.	.
4D\	.	.	.	8r	.	8r	.	8r	.	4D\	-trix	4A\	-trix	4f\	-trix	4dd\	-trix	.	.	.	.	4f/	.	4dd\	.
.	.	.	.	8a\	.	8f/	.	8dd\	.	.	.	.	.	.	.	.	.	.	.	.	.	.	.	.	.
=27	=27	=27	=27	=27	=27	=27	=27	=27	=27	=27	=27	=27	=27	=27	=27	=27	=27	=27	=27	=27	=27	=27	=27	=27	=27
!	!	!	!	!	!	!	!	!	!	!	!LO:MO:mod=af-	!	!	!	!	!LO:SIC:s=4ee	!	!	!	!	!	!	!	!	!
4D\	.	2.ryy	.	2a\	.	4f/	.	(8dd\L	.	(4F\	Af-	2A\	af-	(4f\	af-	(4ee\	af-	.	.	.	.	4f/	.	4dd\	.
.	.	.	.	.	.	.	.	8aa\	.	.	.	.	.	.	.	.	.	.	.	.	.	.	.	.	.
!	!	!	!	!	!	!	!	!	!	!	!	!	!	!	!	!LO:SIC:s=(>>16qqgg	!	!	!	!	!	!	!	!	!
.	.	.	.	.	.	.	.	.	.	.	.	.	.	.	.	16qqgg/	.	.	.	.	.	.	.	8qqgg/	.
4F\	.	.	.	.	.	(8e/L	.	8gg\)	.	4D\)	.	.	.	4a\)	.	4ff\)	.	.	.	.	.	4a/	.	4ff\	.
.	.	.	.	.	.	8d/)	.	8ff|\	.	.	.	.	.	.	.	.	.	.	.	.	.	.	.	.	.
!	!	!	!	!	!	!	!	!	!	!	!	!	!	!	!	!LO:SIC:s=(>>16qqee	!	!	!	!	!	!	!	!LO:SIC:v:s=8qqee/	!
.	.	.	.	.	.	.	.	.	.	.	.	.	.	.	.	16qqee/	.	.	.	.	.	.	.	8qqff/	.
!	!	!	!	!	!	!	!	!	!	!	!	!	!	!	!	!LO:SIC:s=4dd)	!	!	!	!	!	!	!	!LO:SIC:v:s=4dd	!
4D\	.	.	.	4a\	.	(8g/	.	8ee|\	.	4F\	-fli-	4A\	-fli-	4f\	-fli-	4dd\	-fli-	.	.	.	.	4f/	.	4ee\	.
.	.	.	.	.	.	8f/J)	.	8dd|\J	.	.	.	.	.	.	.	.	.	.	.	.	.	.	.	.	.
=28	=28	=28	=28	=28	=28	=28	=28	=28	=28	=28	=28	=28	=28	=28	=28	=28	=28	=28	=28	=28	=28	=28	=28	=28	=28
.	.	.	.	.	.	.	.	.	.	.	.	.	.	.	.	16qqdd/LL	.	.	.	.	.	.	.	.	.
.	.	.	.	.	.	.	.	.	.	.	.	.	.	.	.	16qqcc/	.	.	.	.	.	.	.	.	.
.	.	.	.	.	.	.	.	.	.	.	.	.	.	.	.	16qqb/JJ	.	.	.	.	.	.	.	.	.
!	!	!	!	!	!	!	!	!	!	!	!	!	!	!	!	!	!	!	!	!	!	!	!	!LO:SIC:v:s=4cc	!
4G\	.	2.ryy	.	4g\	.	4e/	.	4cc\	.	4G\	-cto-	4G/	-cto-	4e\	-cto-	4ccT\	-cto-	.	.	.	.	4e/	.	4dd\	.
.	.	.	.	.	.	.	.	(16qqb/LL	.	.	.	.	.	.	.	.	.	.	.	.	.	.	.	.	.
.	.	.	.	.	.	.	.	16qqcc/JJ	.	.	.	.	.	.	.	.	.	.	.	.	.	.	.	.	.
!	!	!	!	!	!	!	!	!	!	!	!	!	!	!	!	!	!	!	!	!	!	!	!	!LO:SIC:v:s=4b	!
4GG/	.	.	.	4g\	.	8d/	.	8b\)	.	4GG/	-rum	4G/	-rum	4d\	-rum	4b\	-rum	.	.	.	.	4d/	.	4cc\	.
.	.	.	.	.	.	8r	.	8r	.	.	.	.	.	.	.	.	.	.	.	.	.	.	.	.	.
!LO:TX:t=P:problem:mixed beam	!	!	!	!	!	!	!	!	!	!	!	!	!	!	!	!	!	!	!	!	!	!	!	!	!
8EE/L	3_	.	.	8r	.	4g/	.	4gg\	.	8r	.	8r	.	8r	.	8r	.	.	.	.	.	8r	.	8r	.
8E\J	.	.	.	8e\	.	.	.	.	.	8E\	Au-	8G/	Au-	8e\	Au-	8g\	Au-	.	.	.	.	8g/	.	8gg\	.
!	!	!	!	!	!	!	!	!	!	!LO:LB:g=original	!	!	!	!	!	!LO:LB:g=original	!	!	!	!	!	!	!	!	!
=29	=29	=29	=29	=29	=29	=29	=29	=29	=29	=29	=29	=29	=29	=29	=29	=29	=29	=29	=29	=29	=29	=29	=29	=29	=29
!	!	!	!	!	!	!	!	!	!	!	!	!	!	!	!	!	!	!	!	!	!	!	!	!	!
8F\L	.	2.ryy	.	8f\L	.	4a/	.	4gg\	.	4F\	-xi-	4.A\	-xi-	4.f\	-xi-	4.a\	-xi-	0.r	.	0.r	.	2a/	.	4gg\	.
8FF/J	X X	.	.	8F/J	.	.	.	.	.	.	.	.	.	.	.	.	.	.	.	.	.	.	.	.	.
*	*	*	*	*	*	*	*	*2\right	*	*	*	*	*	*	*	*	*	*	*	*	*	*	*	*	*
4D\	3_	.	.	4d\	.	(16dd\LL	.	[2ff\	.	4D\	-li-	.	.	.	.	.	.	.	.	.	.	.	.	2ff\	.
.	.	.	.	.	.	16ee\	.	.	.	.	.	.	.	.	.	.	.	.	.	.	.	.	.	.	.
.	.	.	.	.	.	16ff\	.	.	.	.	.	8A\	-li-	8f\	-li-	8ff\	-li-	.	.	.	.	.	.	.	.
.	.	.	.	.	.	16ee\JJ)	.	.	.	.	.	.	.	.	.	.	.	.	.	.	.	.	.	.	.
8BB/L	.	.	.	8B\L	.	(16dd\LL	.	.	.	4BB/	-um	4d\	-um	4a\	-um	4ff\	-um	.	.	.	.	4dd\	.	.	.
.	.	.	.	.	.	16cc\	.	.	.	.	.	.	.	.	.	.	.	.	.	.	.	.	.	.	.
8D/J	.	.	.	8d\J	.	16b\	.	.	.	.	.	.	.	.	.	.	.	.	.	.	.	.	.	.	.
.	.	.	.	.	.	16a\JJ)	.	.	.	.	.	.	.	.	.	.	.	.	.	.	.	.	.	.	.
!	!	!	!	!	!	!	!	!	!	!	!	!	!	!	!	!	!	!	!	!	!	!	!	!LO:LB:g=original	!
!	!	!	!	!	!	!LO:LB:g=original	!	!	!	!	!	!	!	!	!	!	!	!	!	!	!	!	!	!LO:PB:g=original	!
=30	=30	=30	=30	=30	=30	=30	=30	=30	=30	=30	=30	=30	=30	=30	=30	=30	=30	=30	=30	=30	=30	=30	=30	=30	=30
!LO:TX:t=P:problem:mixed beam	!	!	!	!	!	!	!	!	!	!	!	!	!	!	!	!	!	!	!	!	!	!	!	!	!
8E\L	.	2.ryy	.	8e\L	.	(16g/LL	.	4ff\]	.	4E\	Chris-	4c\	Chris-	4g\	Chris-	4ff\	Chris-	.	.	.	.	2g/	.	(4ff\	.
.	.	.	.	.	.	16f#X/	.	.	.	.	.	.	.	.	.	.	.	.	.	.	.	.	.	.	.
8EE/J	X X	.	.	8E/J	.	16g/	.	.	.	.	.	.	.	.	.	.	.	.	.	.	.	.	.	.	.
.	.	.	.	.	.	16f#/JJ)	.	.	.	.	.	.	.	.	.	.	.	.	.	.	.	.	.	.	.
4C/	3_	.	.	4c\	.	(16g/LL	.	[2ee\	.	4C/	.	4c\	.	4g\	.	4ee\	.	.	.	.	.	.	.	2ee\)	.
.	.	.	.	.	.	16cc/)	.	.	.	.	.	.	.	.	.	.	.	.	.	.	.	.	.	.	.
.	.	.	.	.	.	16ee|/	.	.	.	.	.	.	.	.	.	.	.	.	.	.	.	.	.	.	.
.	.	.	.	.	.	16dd|/JJ	.	.	.	.	.	.	.	.	.	.	.	.	.	.	.	.	.	.	.
!LO:LB:g=original	!	!	!	!	!	!	!	!	!	!	!	!	!	!	!	!	!	!	!	!	!	!	!	!	!
8AA/L	.	.	.	8A/L	.	16cc|/LL	.	.	.	4AA/	-tia-	4c\	-tia	4g\	-tia	4ee\	-tia	.	.	.	.	4cc\	.	.	.
.	.	.	.	.	.	16b|/	.	.	.	.	.	.	.	.	.	.	.	.	.	.	.	.	.	.	.
8C/J	.	.	.	8c/J	.	16a|/	.	.	.	.	.	.	.	.	.	.	.	.	.	.	.	.	.	.	.
.	.	.	.	.	.	16g|/JJ	.	.	.	.	.	.	.	.	.	.	.	.	.	.	.	.	.	.	.
!	!	!	!	!	!	!	!	!LO:LB:g=original	!	!	!	!LO:LB:g=original	!	!	!	!	!	!	!	!	!	!	!	!	!
=31	=31	=31	=31	=31	=31	=31	=31	=31	=31	=31	=31	=31	=31	=31	=31	=31	=31	=31	=31	=31	=31	=31	=31	=31	=31
!LO:TX:t=P:problem:mixed beam	!	!	!	!LO:TX:t=P:problem:mixed beam	!	!	!	!	!	!	!	!	!	!	!	!	!	!	!	!	!	!	!	!LO:TX:t=P:problem:brak t. 31	!
!	!	!	!	!	!	!	!	!	!	!	!	!	!	!	!	!	!	!	!	!	!	!	!	!LO:MO:mod=(4ee@	!
8D\L	.	2.ryy	.	8d\L	.	(16fn/LL	.	4ee\]	.	4D\	-no-	(2.B\	no-	(2.f\	no-	4ee\	no-	.	.	.	.	2f/	.	2.ryy	.
.	.	.	.	.	.	16e/	.	.	.	.	.	.	.	.	.	.	.	.	.	.	.	.	.	.	.
8DD/J	X X	.	.	8D/J	.	16f/	.	.	.	.	.	.	.	.	.	.	.	.	.	.	.	.	.	.	.
.	.	.	.	.	.	16g/JJ)	.	.	.	.	.	.	.	.	.	.	.	.	.	.	.	.	.	.	.
!	!	!	!	!	!	!	!	!	!	!	!	!	!	!	!	!	!	!	!	!	!	!	!	!LO:MO:null:mod=2dd@)	!
4BB/	3_	.	.	4B/	.	(16f/LL	.	[2dd\	.	4BB/	.	.	.	.	.	[2dd\	.	.	.	.	.	.	.	.	.
.	.	.	.	.	.	16b/)	.	.	.	.	.	.	.	.	.	.	.	.	.	.	.	.	.	.	.
.	.	.	.	.	.	16dd|/	.	.	.	.	.	.	.	.	.	.	.	.	.	.	.	.	.	.	.
.	.	.	.	.	.	16cc|/JJ	.	.	.	.	.	.	.	.	.	.	.	.	.	.	.	.	.	.	.
8GG/L	.	.	.	8G/L	.	16b|/LL	.	.	.	4GG/	.	.	.	.	.	.	.	.	.	.	.	4b\	.	.	.
.	.	.	.	.	.	16a|/	.	.	.	.	.	.	.	.	.	.	.	.	.	.	.	.	.	.	.
8BB/J	.	.	.	8B/J	.	16g|/	.	.	.	.	.	.	.	.	.	.	.	.	.	.	.	.	.	.	.
.	.	.	.	.	.	16f|/JJ	.	.	.	.	.	.	.	.	.	.	.	.	.	.	.	.	.	.	.
=32	=32	=32	=32	=32	=32	=32	=32	=32	=32	=32	=32	=32	=32	=32	=32	=32	=32	=32	=32	=32	=32	=32	=32	=32	=32
4C/	3	2.ryy	.	4c\	.	(16e/LL	.	4dd\]	.	4C/	.	4c\)	.	4e\)	.	4dd\]	.	.	.	.	.	2e/	.	(4dd\	.
.	.	.	.	.	.	16d/	.	.	.	.	.	.	.	.	.	.	.	.	.	.	.	.	.	.	.
.	.	.	.	.	.	16e/	.	.	.	.	.	.	.	.	.	.	.	.	.	.	.	.	.	.	.
.	.	.	.	.	.	16f/JJ)	.	.	.	.	.	.	.	.	.	.	.	.	.	.	.	.	.	.	.
4A\	.	.	.	4a\	.	16r	.	2cc\	.	4A\	.	2c\	-rum	2e\	-rum	2cc\	-rum	.	.	.	.	.	.	2cc\)	.
.	.	.	.	.	.	(16e/LL	.	.	.	.	.	.	.	.	.	.	.	.	.	.	.	.	.	.	.
.	.	.	.	.	.	16c/	.	.	.	.	.	.	.	.	.	.	.	.	.	.	.	.	.	.	.
.	.	.	.	.	.	16e/JJ)	.	.	.	.	.	.	.	.	.	.	.	.	.	.	.	.	.	.	.
4E\	6	.	.	4e\	.	16r	.	.	.	4E\	-rum	.	.	.	.	.	.	.	.	.	.	4e/	.	.	.
.	.	.	.	.	.	(16g/LL	.	.	.	.	.	.	.	.	.	.	.	.	.	.	.	.	.	.	.
.	.	.	.	.	.	16e/)	.	.	.	.	.	.	.	.	.	.	.	.	.	.	.	.	.	.	.
.	.	.	.	.	.	16cc|/JJ	.	.	.	.	.	.	.	.	.	.	.	.	.	.	.	.	.	.	.
=33	=33	=33	=33	=33	=33	=33	=33	=33	=33	=33	=33	=33	=33	=33	=33	=33	=33	=33	=33	=33	=33	=33	=33	=33	=33
!	!	!	!	!	!	!	!	!	!	!	!	!	!	!	!	!	!	!	!	!	!	!	!	!	!
4F\	6	2.ryy	.	4f\	.	16r	.	16r	.	(4F\	o-	2A\	o-	2d\	o-	2cc\	o-	0.r	.	0.r	.	2a/	.	2cc\	.
.	.	.	.	.	.	(16f/LL	.	(16dd\LL	.	.	.	.	.	.	.	.	.	.	.	.	.	.	.	.	.
!	!	!	!	!	!	!	!	!LO:SIC:s=16cc#)	!	!	!	!	!	!	!	!	!	!	!	!	!	!	!	!	!
.	.	.	.	.	.	16e/)	.	16cc#X\	.	.	.	.	.	.	.	.	.	.	.	.	.	.	.	.	.
!	!	!	!	!	!	!	!	!LO:SIC:s=16ddJJ|	!	!	!	!	!	!	!	!	!	!	!	!	!	!	!	!	!
.	.	.	.	.	.	16f|/JJ	.	16dd\JJ)	.	.	.	.	.	.	.	.	.	.	.	.	.	.	.	.	.
4D\	3	.	.	4d\	.	16r	.	16r	.	4D\)	.	.	.	.	.	.	.	.	.	.	.	.	.	.	.
.	.	.	.	.	.	16f|/LL	.	16dd|\LL	.	.	.	.	.	.	.	.	.	.	.	.	.	.	.	.	.
.	.	.	.	.	.	(16a/	.	(16ff\	.	.	.	.	.	.	.	.	.	.	.	.	.	.	.	.	.
.	.	.	.	.	.	16f/JJ)	.	16dd\JJ)	.	.	.	.	.	.	.	.	.	.	.	.	.	.	.	.	.
4G\	3	.	.	4g\	.	16r	.	16r	.	4G\	-ra	4G/	-ra	4d\	-ra	4b\	-ra	.	.	.	.	4g/	.	4b\	.
!	!	!	!	!	!	!	!	!LO:SIC:s=16bLL|	!	!	!	!	!	!	!	!	!	!	!	!	!	!	!	!	!
.	.	.	.	.	.	16d|/LL	.	(16b\LL	.	.	.	.	.	.	.	.	.	.	.	.	.	.	.	.	.
!	!	!	!	!	!	!	!	!LO:SIC:s=(16dd	!	!	!	!	!	!	!	!	!	!	!	!	!	!	!	!	!
.	.	.	.	.	.	(16f/	.	16dd\	.	.	.	.	.	.	.	.	.	.	.	.	.	.	.	.	.
.	.	.	.	.	.	16d/JJ)	.	16b\JJ)	.	.	.	.	.	.	.	.	.	.	.	.	.	.	.	.	.
!	!	!	!	!	!	!LO:LB:g=original	!	!	!	!	!	!	!	!	!	!	!	!	!	!	!	!LO:LB:g=original	!	!	!
=34	=34	=34	=34	=34	=34	=34	=34	=34	=34	=34	=34	=34	=34	=34	=34	=34	=34	=34	=34	=34	=34	=34	=34	=34	=34
!	!	!	!	!	!	!	!	!	!	!	!	!	!	!	!	!	!	!	!	!	!	!LO:SIC:s=(4e	!	!	!
4C/	.	2.ryy	.	4c\	.	8r	.	8r	.	(4C/	o-	(4G/	o-	(4e\	o-	(4cc\	o-	.	.	.	.	4e/	.	(4cc\	.
.	.	.	.	.	.	8e|/	.	8cc|\	.	.	.	.	.	.	.	.	.	.	.	.	.	.	.	.	.
4BB/	.	.	.	4B\	.	8r	.	8r	.	4BB/)	.	4d\)	.	4g\)	.	4ff\)	.	.	.	.	.	4dd\	.	4ff\	.
.	.	.	.	.	.	8dd|\	.	8ff|\	.	.	.	.	.	.	.	.	.	.	.	.	.	.	.	.	.
!	!	!	!	!	!	!	!	!	!	!	!	!	!	!	!	!	!	!	!	!	!	!LO:SIC:s=4cc)	!	!	!
4C/	.	.	.	4c\	.	8r	.	8r	.	4C/	-ra	4c\	-ra	4g\	-ra	4ee\	-ra	.	.	.	.	4cc\	.	4ee\)	.
.	.	.	.	.	.	8cc|\	.	8ee|\	.	.	.	.	.	.	.	.	.	.	.	.	.	.	.	.	.
=35	=35	=35	=35	=35	=35	=35	=35	=35	=35	=35	=35	=35	=35	=35	=35	=35	=35	=35	=35	=35	=35	=35	=35	=35	=35
!	!	!	!	!	!	!	!	!LO:TX:t=P:problem:mixed beam	!	!	!	!	!	!	!	!	!	!	!	!	!	!	!	!	!
4F\	.	2.ryy	.	8r	.	(8f/L	.	(>8dd\L	.	4F\	pro	4A/	pro	4f\	pro	4dd\	pro	.	.	.	.	4f/	.	4dd\	.
.	.	.	.	8a\	.	8d/)	.	8f/)	.	.	.	.	.	.	.	.	.	.	.	.	.	.	.	.	.
4G\	.	.	.	8r	.	(8c/	.	8e|/	.	(4G\	no-	2G/	no-	(4e\	no-	(4cc\	no-	.	.	.	.	4e/	.	4cc\	.
.	.	.	.	8g\	.	8e/)	.	8cc|\	.	.	.	.	.	.	.	.	.	.	.	.	.	.	.	.	.
4GG/	.	.	.	8r	.	(8B/	.	8d|/	.	4GG/)	.	.	.	4d\)	.	4b\)	.	.	.	.	.	4d/	.	4b\	.
.	.	.	.	8g\	.	8d/J)	.	8b|\J	.	.	.	.	.	.	.	.	.	.	.	.	.	.	.	.	.
!	!	!	!	!	!	!	!	!	!	!	!	!	!	!LO:LB:g=original	!	!	!	!	!	!	!	!	!	!	!
=36	=36	=36	=36	=36	=36	=36	=36	=36	=36	=36	=36	=36	=36	=36	=36	=36	=36	=36	=36	=36	=36	=36	=36	=36	=36
!	!	!	!	!	!LO:DY:color=red	!	!	!	!	!	!	!	!	!	!	!	!	!	!	!	!	!	!	!	!
!	!	!	!	!	!LO:MO:null:mod=.	!	!	!	!	!	!	!	!	!	!	!	!	!	!	!	!	!	!	!	!
4C/	.	2.ryy	.	4g\	pp	4e/	.	4cc\	.	2C/	-bis	2G/	-bis	2e\	-bis	2cc\	-bis	.	.	.	.	4e/	.	4cc\	.
!LO:TX:a:t=pedal	!	!	!	!	!	!	!LO:DY:a:t=pp mi	!	!LO:DY:a	!	!	!	!	!	!	!	!	!	!	!	!	!	!	!	!
!	!	!	!LO:DY:b=2:color=red	!	!	!	!	!	!	!	!	!	!	!	!	!	!	!	!	!	!	!	!	!	!
!	!	!	!LO:MO:null:mod=.	!	!	!	!LO:MO:null:mod=.	!	!LO:MO:null:mod=.	!	!	!	!	!	!	!	!	!	!	!	!	!	!	!	!
4r	.	.	pp	4r	.	4r	pp	4r	pp	.	.	.	.	.	.	.	.	.	.	.	.	4r	.	4r	.
!	!	!	!LO:DY:b=2	!	!	!	!	!	!	!	!	!	!	!	!	!	!	!	!	!	!	!	!	!	!
!	!	!	!LO:MO:null:mod=pp	!	!LO:MO:null:mod=pp	!	!LO:MO:null:mod=pp	!	!LO:MO:null:mod=pp	!	!	!	!	!	!	!	!	!	!	!	!	!	!	!	!
4CC/	.	.	.	4C/ 4G	.	4c/	.	4G/ 4e	.	4r	.	4r	.	4r	.	4r	.	.	.	.	.	4r	.	4r	.
=37	=37	=37	=37	=37	=37	=37	=37	=37	=37	=37	=37	=37	=37	=37	=37	=37	=37	=37	=37	=37	=37	=37	=37	=37	=37
!	!	!	!	!	!	!	!	!	!	!LO:TX:a:t=1:mod=	!	!LO:TX:a:t=1:mod=	!	!	!	!LO:TX:a:t=1:mod=	!	!	!	!	!	!LO:TX:a:t=1.:mod=	!	!	!
2CC/	.	2.ryy	.	2C/ 2G	.	2c/	.	2G/ 2e	.	2.r	.	2.r	.	2.r	.	2.r	.	2.r	.	2.r	.	2.r	.	2.r	.
4r	.	.	.	4r	.	4r	.	4r	.	.	.	.	.	.	.	.	.	.	.	.	.	.	.	.	.
==	==	==	==	==	==	==	==	==	==	==	==	==	==	==	==	==	==	==	==	==	==	==	==	==	==
*-	*-	*-	*-	*-	*-	*-	*-	*-	*-	*-	*-	*-	*-	*-	*-	*-	*-	*-	*-	*-	*-	*-	*-	*-	*-
!!!system-decoration: [(s1,s2)][(s3,s4)][(s5,s6,s7,s8)][(s9,s10,s11)]{(s12,s13)}
!!!RDF**kern: | = vertical stroke
!!!RDF**kern: > = above
!!!RDF**kern: < = below
!!!RDF**kern: @ = marked note, color=grey
!!!ENC: Marcin Jachim
!!!END: 2020-10-18
!!!ENC: Natalia Wrzos
!!!END: 2022-06-27
!!!ENC-modern: Andrzej Borzym
!!!END-modern: 2022-08-30
!!!YEC: Copyright 2022 Narodowy Instytut Fryderyka Chopina (https://polishscores.org)
!!!YEM: License CC-BY-4.0 (https://creativecommons.org/licenses/by/4.0)
